img/icon/daryn-black.svg

<svg width="12" height="18" viewBox="0 0 12 18" fill="none" xmlns="http://www.w3.org/2000/svg">
<path fill-rule="evenodd" clip-rule="evenodd" d="M7 15.8501V18H4.5V16H0V2H4.5V0H7V2.14982C10.1858 2.75404 12 5.16191 12 8.93694C12 12.799 10.2041 15.2411 7 15.8501ZM7 13.4632C8.55902 12.797 9.41311 11.2559 9.41311 8.97575C9.41311 6.75329 8.54443 5.21836 7 4.54632V13.4632ZM4.5 4.16355H2.5377V13.8365H4.5V4.16355Z" fill="#222222"/>
</svg>

<svg width="12" height="18" fill="none" xmlns="http://www.w3.org/2000/svg"><path fill-rule="evenodd" clip-rule="evenodd" d="M7 15.85V18H4.5v-2H0V2h4.5V0H7v2.15c3.186.604 5 3.012 5 6.787 0 3.862-1.796 6.304-5 6.913zm0-2.387c1.559-.666 2.413-2.207 2.413-4.487 0-2.223-.869-3.758-2.413-4.43v8.917zm-2.5-9.3H2.538v9.673H4.5V4.164z" fill="#222"/></svg>
